Adwaita++/actions/symbolic/media-seek-forward-symbolic.svg

<svg height="16" width="16" xmlns="http://www.w3.org/2000/svg">
  <g fill="#474747">
    <path d="m9.04 4a1 1 0 0 0 -1.04 1v6a1 1 0 0 0 1.514.857l5-3a1 1 0 0 0 0-1.714l-5-3a1 1 0 0 0 -.474-.143zm.96 2.768 2.055 1.232-2.055 1.232z"/>
    <path d="m9 11h-1v1h1zm0-7h-1v1h1z"/>
    <path d="m2.04 4a1 1 0 0 0 -1.04 1v6a1 1 0 0 0 1.514.857l5-3a1 1 0 0 0 0-1.714l-5-3a1 1 0 0 0 -.474-.143zm.96 2.768 2.055 1.232-2.055 1.232z"/>
    <path d="m2 11h-1v1h1zm0-7h-1v1h1zm7 1 5 3-5 3zm-7 0 5 3-5 3z"/>
  </g>
</svg>

<svg xmlns="http://www.w3.org/2000/svg" width="16" height="16">
    <g color="#000" fill="#474747">
        <path d="M9.04 4A1 1 0 0 0 8 5v6a1 1 0 0 0 1.514.857l5-3a1 1 0 0 0 0-1.714l-5-3A1 1 0 0 0 9.04 4zM10 6.768L12.055 8 10 9.232z" style="line-height:normal;font-variant-ligatures:normal;font-variant-position:normal;font-variant-caps:normal;font-variant-numeric:normal;font-variant-alternates:normal;font-feature-settings:normal;text-indent:0;text-align:start;text-decoration-line:none;text-decoration-style:solid;text-decoration-color:#000;text-transform:none;text-orientation:mixed;shape-padding:0;isolation:auto;mix-blend-mode:normal;marker:none" font-weight="400" font-family="sans-serif" white-space="normal" overflow="visible"/>
        <path d="M9 11H8v1h1zM9 4H8v1h1z" style="marker:none" overflow="visible"/>
        <path d="M2.04 4A1 1 0 0 0 1 5v6a1 1 0 0 0 1.514.857l5-3a1 1 0 0 0 0-1.714l-5-3A1 1 0 0 0 2.04 4zM3 6.768L5.055 8 3 9.232z" style="line-height:normal;font-variant-ligatures:normal;font-variant-position:normal;font-variant-caps:normal;font-variant-numeric:normal;font-variant-alternates:normal;font-feature-settings:normal;text-indent:0;text-align:start;text-decoration-line:none;text-decoration-style:solid;text-decoration-color:#000;text-transform:none;text-orientation:mixed;shape-padding:0;isolation:auto;mix-blend-mode:normal;marker:none" font-weight="400" font-family="sans-serif" white-space="normal" overflow="visible"/>
        <path d="M2 11H1v1h1zM2 4H1v1h1zM9 5l5 3-5 3zM2 5l5 3-5 3z" style="marker:none" overflow="visible"/>
    </g>
</svg>
